subcellular/src/assets/icons/svg/user.svg

<svg xmlns="http://www.w3.org/2000/svg" width="32" height="32" viewBox="0 0 32 32"><path fill="#FFF" d="M9.212 10.061a6.788 6.788 0 1 0 13.576 0 6.788 6.788 0 0 0-13.576 0m13.576 8.485H9.212a6.787 6.787 0 0 0-6.787 6.788v3.394h27.152v-3.394a6.789 6.789 0 0 0-6.789-6.788"/><path fill="#C8C8C8" d="M30 29.151H2v-3.817c0-3.978 3.235-7.213 7.212-7.213h13.576c3.976 0 7.212 3.235 7.212 7.213v3.817zm-27.151-.848h26.302v-2.969a6.369 6.369 0 0 0-6.363-6.363H9.212a6.369 6.369 0 0 0-6.362 6.363v2.969h-.001zM16 17.272a7.22 7.22 0 0 1-7.212-7.212c0-3.977 3.235-7.212 7.212-7.212s7.212 3.235 7.212 7.212-3.236 7.212-7.212 7.212zm0-13.575a6.37 6.37 0 0 0-6.363 6.363A6.37 6.37 0 0 0 16 16.424a6.37 6.37 0 0 0 6.363-6.364A6.37 6.37 0 0 0 16 3.697z"/></svg>

<?xml version="1.0" encoding="utf-8"?>
<!-- Generator: Adobe Illustrator 14.0.0, SVG Export Plug-In . SVG Version: 6.00 Build 43363)  -->
<!DOCTYPE svg PUBLIC "-//W3C//DTD SVG 1.1//EN" "http://www.w3.org/Graphics/SVG/1.1/DTD/svg11.dtd">
<svg version="1.1" id="Layer_1" xmlns="http://www.w3.org/2000/svg" xmlns:xlink="http://www.w3.org/1999/xlink" x="0px" y="0px"
	 width="32px" height="32px" viewBox="0 0 32 32" enable-background="new 0 0 32 32" xml:space="preserve">
<g>
	<path fill="#FFFFFF" d="M9.212,10.061c0,3.75,3.04,6.788,6.788,6.788c3.749,0,6.788-3.038,6.788-6.788
		c0-3.75-3.039-6.787-6.788-6.787C12.251,3.273,9.212,6.31,9.212,10.061 M22.788,18.546H9.212c-3.749,0-6.787,3.039-6.787,6.788
		v3.394h27.152v-3.394C29.577,21.585,26.537,18.546,22.788,18.546"/>
	<path fill="#C8C8C8" d="M30,29.151H2v-3.817c0-3.978,3.235-7.213,7.212-7.213h13.576c3.976,0,7.212,3.235,7.212,7.213V29.151
		L30,29.151z M2.849,28.303h26.302v-2.969c0-3.51-2.854-6.363-6.363-6.363H9.212c-3.509,0-6.362,2.854-6.362,6.363V28.303
		L2.849,28.303z M16,17.272c-3.977,0-7.212-3.235-7.212-7.212c0-3.977,3.235-7.212,7.212-7.212s7.212,3.235,7.212,7.212
		C23.212,14.037,19.976,17.272,16,17.272L16,17.272z M16,3.697c-3.509,0-6.363,2.854-6.363,6.363c0,3.51,2.854,6.364,6.363,6.364
		c3.51,0,6.363-2.854,6.363-6.364C22.363,6.552,19.51,3.697,16,3.697L16,3.697z"/>
</g>
</svg>
